X: 1552
T: Angry Man, The
R: slip jig
M: 9/8
K: Cmajor
|cAA ABc (3BBA G|cAA ABc (3BBA G|EFF FGA AGF|FGG GAB BAG|
cAA ABc (3BBA G|cAA ABc (3BBA G|EFF FGA AGF|FGG GAB BcB|
cAA ABc (3BBA G|cAA ABc (3BBA G|EFF FGA AGF|FGG GAB BAG|
EFF FGA AGF|FGG GAB BAG|Ace aec AEG|Ace aec AEE|
EFF FGA AGF|FGG GAB BcB|Ace fec ecB|Ace fec ecA
EFF FGA AGF|FGG GAB BAG|Ace aec AEG|Ace aec AEE|
EFF FGA AGF|FGG GAB BAG|Ace fec ecB|[A9e9]|

